!!!!SEGMENT: pl-kk--kk-i-636--002-008_anonim--in-parasceve-responsorium-5tum.krn
!!!cenid: 18xx:4542
!!!COM: Anonim
!!!COM-rismID: pe30004985
!!!CDT:
!!!CNT:
!!!OPR: In Parasceve
!!!OTL: Responsorium 5tum
!!!OMV: 008
!!!PDT:
!!!AGN: Sacred
!!!YEC: Copyright 2022 Narodowy Instytut Fryderyka Chopina (https://polishscores.org)
!!!YEM: License CC-BY-4.0 (https://creativecommons.org/licenses/by/4.0)
!!!SMS-siglum: PL-Kk
!!!SMS-shelfmark: Kk.I.636
!!!SMS-variant:
!!!SMS-altvar:
!!!SMS-shelfwork: 002-008 M
!!!NIFC-rismSourceID: 1001216440
!!!NIFC-rismChildID: 1001216920
!!!NIFC-islandoraID: pl-kk:40786
!!!URL-pdf-islandora: https://repozytorium.nifc.pl/islandora/object/pl-kk%3A40786/datastream/PDF/view
!!!URL-scan: https://polish.musicsources.pl/pl/lokalizacje/galeria/rekopisy/7271/1 @EN{Scan on Polish Music Sources Website} @PL{Skany w portalu Dziedzictwo Muzyki Polskiej w otwartym dostępie}
!!!IIIF:
!!!ONB-nifc: UWAGA: Lamentacje i Responsoria In Parasceve na skanach: S – 8-14, A – 31-37,T – 53-60, B – 78-86. Każda Lamentacja i Responsorium to oddzielne pliki.
!!!AIN: 1 alto 1 bass 1 soprn 1 tenor
!!!key: E-
**kern	**text	**dynam	**kern	**text	**dynam	**kern	**text	**dynam	**kern	**text	**dynam
*part4	*part4	*part4	*part3	*part3	*part3	*part2	*part2	*part2	*part1	*part1	*part1
*staff4	*staff4	*	*staff3	*staff3	*	*staff2	*staff2	*	*staff1	*staff1	*
*ICvox	*	*	*ICvox	*	*	*ICvox	*	*	*ICvox	*	*
*Ibass	*	*	*Itenor	*	*	*Ialto	*	*	*Isoprn	*	*
*I"Basso.	*	*	*I"Tenore.	*	*	*I"Alto.	*	*	*I"Soprano.	*	*
*I'B	*	*	*I'T	*	*	*I'A	*	*	*I'S	*	*
*clefF4	*	*	*clefC4	*	*	*clefC3	*	*	*clefC1	*	*
*k[b-e-a-]	*	*	*k[b-e-a-]	*	*	*k[b-e-a-]	*	*	*k[b-e-a-]	*	*
*E-:	*	*	*E-:	*	*	*E-:	*	*	*E-:	*	*
*M4/4	*	*	*M4/4	*	*	*M4/4	*	*	*M4/4	*	*
*met(c)	*	*	*met(c)	*	*	*met(c)	*	*	*met(c)	*	*
*all\right	*	*	*all\right	*	*	*all\right	*	*	*all\right	*	*
=1	=1	=1	=1	=1	=1	=1	=1	=1	=1	=1	=1
*2\right	*	*	*2\right	*	*	*2\right	*	*below	*2\right	*	*below
!!LO:TX:t=P:problem:all\right
!LO:TX:t=P:problem:znaki: A- zamiast AA-	!	!LO:DY:b:rj	!	!	!LO:DY:a:rj:t=for.	!	!	!LO:DY:a:rj	!	!	!LO:DY:rj
2E-\	Te-	f	2G/	Te-	f	2B-/	Te-	f	2e-/	Te-	f
4E-\	-ne-	.	4G/	-ne-	.	4B-/	-ne-	.	4e-/	-ne-	.
4E-\	-brae	.	4G/	-brae	.	4B-/	-brae	.	4e-/	-brae	.
!LO:LB:g=original	!	!	!	!	!	!	!	!	!	!	!
=2	=2	=2	=2	=2	=2	=2	=2	=2	=2	=2	=2
2.D-X\	fa-	.	2.B-\	fa-	.	2.e-\	fa-	.	2.g\	fa-	.
4D-\	-ctae	.	4B-\	-ctae	.	4e-\	-ctae	.	4g\	-ctae	.
!	!	!	!LO:LB:g=original	!	!	!LO:LB:g=original	!	!	!LO:LB:g=original	!	!
=3	=3	=3	=3	=3	=3	=3	=3	=3	=3	=3	=3
2C/	sunt	.	2A-\	sunt	.	2e-\	sunt,	.	2a-\	sunt,	.
4r	.	.	4r	.	.	4r	.	.	4r	.	.
!	!	!	!	!	!	!	!	!LO:DY:rj	!	!	!LO:DY:rj
4C/	dum	.	4E-/	dum	.	4c\	dum	f	4a-\	dum	f
=4	=4	=4	=4	=4	=4	=4	=4	=4	=4	=4	=4
!	!	!LO:DY:rj	!	!	!LO:DY:a:rj:t=for.	!	!	!	!	!	!
2BB-/	cru-	f	2G/	cru-	f	2d-X\	cru-	.	2b-\	cru-	.
4BB-/	-ci-	.	4G/	-ci-	.	4d-\	-ci-	.	4b-\	-ci-	.
4BB-/	-fi-	.	4d-X\	-fi-	.	4g\	-fi-	.	4b-\	-fi-	.
=5	=5	=5	=5	=5	=5	=5	=5	=5	=5	=5	=5
!	!	!	!	!	!	!	!	!LO:DY:rj	!	!	!
2AA-/	-xis-	.	4c\	-xis-	.	4a-\	-xis-	f	2cc\	-xis-	.
.	.	.	4A-\	-sent	.	4e-\	-sent	.	.	.	.
!	!	!	!	!	!LO:DY:a:rj:t=for.	!	!	!	!	!	!
2AA-/	-sent	.	2E-/	Je-	f	2c\	Je-	.	2cc\	-sent	.
!LO:LB:g=original	!	!	!	!	!	!	!	!	!	!	!
=6	=6	=6	=6	=6	=6	=6	=6	=6	=6	=6	=6
2GG/	Je-	.	2.E-/	-sum	.	2B-/	.	.	2dd-X\	Je-	.
4GG/	-sum	.	.	.	.	4B-/	-sum	.	4d-X/	-sum	.
4GG/	Ju-	.	4E-/	Ju-	.	4B-/	Ju-	.	4d-/	Ju-	.
!	!	!	!	!	!	!	!	!	!LO:LB:g=original	!	!
=7	=7	=7	=7	=7	=7	=7	=7	=7	=7	=7	=7
!	!	!	!	!	!	!	!	!	!LO:SIC:v:s=2d-/	!	!
2AA-/	-de-	.	2E-/	-de-	.	2B-/	-de-	.	2d/	-de-	.
2AA-/	-i,	.	2E-/	-i,	.	2A-/	-i	.	2c/	-i,	.
!	!	!	!LO:LB:g=original	!	!	!LO:LB:g=original	!	!	!	!	!
=8	=8	=8	=8	=8	=8	=8	=8	=8	=8	=8	=8
4r	.	.	4r	.	.	4r	.	.	4r	.	.
!	!	!LO:DY:rj	!	!	!LO:DY:b:rj:t=for.	!	!	!LO:DY:rj	!	!	!LO:DY:rj
4AA-/	et	f	4A-\	et	f	4e-\	et	f	4cc\	et	f
4AA-/	cir-	.	4A-\	cir-	.	4e-\	cir-	.	4cc\	cir-	.
4A-\	-ca	.	4c\	-ca	.	4e-\	-ca	.	4cc\	-ca	.
=9	=9	=9	=9	=9	=9	=9	=9	=9	=9	=9	=9
2.En\	ho-	.	2.c\	ho-	.	2.g\	ho-	.	2.cc\	ho-	.
4E\	-ram	.	4c\	-ram	.	4g\	-ram	.	4b-\	-ram	.
!LO:PB:g=original	!	!	!	!	!	!	!	!	!	!	!
=10	=10	=10	=10	=10	=10	=10	=10	=10	=10	=10	=10
2F\	no	.	2c\	no-	.	2g\	no-	.	2b-\	no-	.
2F\	nam	.	2c\	-nam	.	2f\	-nam	.	2a-\	-nam	.
!	!	!	!	!	!	!	!	!	!LO:LB:g=original	!	!
=11	=11	=11	=11	=11	=11	=11	=11	=11	=11	=11	=11
!	!	!LO:DY:rj	!	!	!	!	!	!LO:DY:rj	!	!	!
4E-\	ex-	f	4c\	ex-	.	4f\	ex-	f	4an\	ex-	.
4E-\	-cla-	.	4c\	-cla-	.	4f\	-cla-	.	4a\	-cla-	.
4E-\	-ma-	.	4c\	-ma-	.	4f\	-ma-	.	4a\	-ma-	.
4E-\	-vit	.	4c\	-vit	.	4f\	-vit	.	4a\	-vit	.
=12	=12	=12	=12	=12	=12	=12	=12	=12	=12	=12	=12
!	!	!	!	!	!	!	!	!	!	!	!LO:DY:rj
2D\	Je-	.	2B-\	Je-	.	2f\	Je-	.	2b-\	Je-	f
2D\	-sus	.	2d\	-sus,	.	2f\	-sus	.	2b-\	-sus	.
!	!	!	!LO:LB:g=original	!	!	!LO:LB:g=original	!	!	!	!	!
=13	=13	=13	=13	=13	=13	=13	=13	=13	=13	=13	=13
!	!	!LO:DY:rj	!	!	!	!	!	!LO:DY:rj	!	!	!LO:DY:rj
2.AAn/	vo-	f	2.c\	vo-	.	2.f\	vo-	f	2.ee-\	vo-	f
!LO:SIC:v:s=4An\	!	!	!	!	!	!	!	!	!	!	!
4A-\	-ce	.	4c\	-ce	.	4f\	-ce	.	4ee-\	-ce	.
=14	=14	=14	=14	=14	=14	=14	=14	=14	=14	=14	=14
!	!	!LO:DY:b:rj	!	!	!	!	!	!	!	!	!
2B-\	ma-	f	2c\	ma-	.	2f\	ma-	.	2ee-\	ma-	.
2BB-/	-gna,	.	2B-\	-gna,	.	2f\	-gna,	.	2dd\	-gna,	.
!LO:LB:g=original	!	!	!	!	!	!	!	!	!LO:LB:g=original	!	!
=15	=15	=15	=15	=15	=15	=15	=15	=15	=15	=15	=15
!LO:TX:a:t=1:mod=	!	!	!LO:TX:a:t=1:mod=	!	!	!LO:TX:a:t=1:mod=	!	!	!LO:TX:a:t=1:mod=	!	!
1r	.	.	1r	.	.	1r	.	.	1r	.	.
=16	=16	=16	=16	=16	=16	=16	=16	=16	=16	=16	=16
!	!	!LO:DY:rj	!	!	!	!	!	!LO:DY:rj	!	!	!LO:DY:a:rj
2BB-/	De-	p	2B-\	De-	.	2d\	De-	p	2f/	De-	p
2E-\	-us	.	2B-\	-us	.	2e-\	-us	.	2g/	-us	.
=17	=17	=17	=17	=17	=17	=17	=17	=17	=17	=17	=17
1D	me-	.	1B-	me-	.	1f	me-	.	1a-	me-	.
=18	=18	=18	=18	=18	=18	=18	=18	=18	=18	=18	=18
2E-\	-us,	.	2B-\	-us,	.	2e-\	-us,	.	2g\	-us,	.
4r	.	.	4r	.	.	4r	.	.	4r	.	.
4GG/	ut	.	4B-\	ut	.	4e-\	ut	.	4g\	ut	.
!	!	!	!LO:LB:g=original	!	!	!LO:LB:g=original	!	!	!	!	!
=19	=19	=19	=19	=19	=19	=19	=19	=19	=19	=19	=19
.	.	.	.	.	.	.	.	.	8qqg/	.	.
2AA-/	quid	.	2c\	quid	.	2e-\	quid	.	2f/	quid	.
2AAn/	me	.	2c\	me	.	2e-\	me	.	2f/	me	.
!	!	!	!	!	!	!	!	!	!LO:LB:g=original	!	!
=20	=20	=20	=20	=20	=20	=20	=20	=20	=20	=20	=20
2BB-/	de-	.	2B-\	de-	.	2d\	de-	.	2f/	de-	.
4E-\	-re-	.	4B-\	-re-	.	4e-\	-re-	.	4g/	-re-	.
4E-\	-lin-	.	4B-\	-lin-	.	4e-\	-lin-	.	4g/	-lin-	.
!LO:LB:g=original	!	!	!	!	!	!	!	!	!	!	!
=21	=21	=21	=21	=21	=21	=21	=21	=21	=21	=21	=21
1D	-qui-	.	1B-	-qui-	.	1f	-qui-	.	1a-	-qui-	.
=22	=22	=22	=22	=22	=22	=22	=22	=22	=22	=22	=22
1E-	-sti,	.	1B-	-sti,	.	1e-	-sti,	.	1g	-sti,	.
=23	=23	=23	=23	=23	=23	=23	=23	=23	=23	=23	=23
!LO:TX:a:t=1:mod=	!	!	!LO:TX:a:t=1:mod=	!	!	!LO:TX:a:t=1:mod=	!	!	!LO:TX:a:t=1:mod=	!	!
1r	.	.	1r	.	.	1r	.	.	1r	.	.
!	!	!	!	!	!	!	!	!	!LO:TX:b:rj:t=Volti Subito&colon;:mod=	!	!
!	!	!	!	!	!	!	!	!	!LO:PB:g=original	!	!
=24	=24	=24	=24	=24	=24	=24	=24	=24	=24	=24	=24
!	!	!LO:DY:b:rj	!	!	!	!	!	!LO:DY:rj	!	!	!LO:DY:rj:t=p.
1G	et	p	1B-	et	.	1e-	et	p	1ee-	et	p
!	!	!	!LO:LB:g=original	!	!	!	!	!	!	!	!
=25	=25	=25	=25	=25	=25	=25	=25	=25	=25	=25	=25
2F\	in-	.	2Bn\	in-	.	2a-X\	in-	.	2dd\	in-	.
2E-\	-cli-	.	2c\	-cli-	.	2g\	-cli-	.	2cc\	-cli-	.
!	!	!	!	!	!	!LO:LB:g=original	!	!	!	!	!
=26	=26	=26	=26	=26	=26	=26	=26	=26	=26	=26	=26
2D/	-na-	.	2F/	-na-	.	2f\	-na-	.	2b-\	-na-	.
2C/	-to	.	2F/	-to	.	2e-\	-to	.	2an\	-to	.
=27	=27	=27	=27	=27	=27	=27	=27	=27	=27	=27	=27
!	!	!	!	!	!	!	!	!LO:DY:rj	!	!	!
2.BB-/	ca-	.	2.F/	ca-	.	2.d\	ca-	p	2.a-X\	ca-	.
4BB-/	-pi-	.	4F/	-pi-	.	4d\	-pi-	.	4a-\	-pi-	.
!LO:LB:g=original	!	!	!	!	!	!	!	!	!	!	!
=28	=28	=28	=28	=28	=28	=28	=28	=28	=28	=28	=28
1BB-	-te,	.	2.F/	-te,	.	1d	-te	.	1a-	-te,	.
.	.	.	4r	.	.	.	.	.	.	.	.
!	!	!	!LO:TX:b:rj:t=V.S.:mod=	!	!	!	!	!	!	!	!
!	!	!	!LO:PB:g=original	!	!	!	!	!	!	!	!
=29	=29	=29	=29	=29	=29	=29	=29	=29	=29	=29	=29
2r	.	.	2r	.	.	2r	.	.	2r	.	.
!	!	!	!	!	!	!	!	!LO:DY:a:rj	!	!	!LO:DY:rj
2AAn/	e-	.	2G-X/	e-	.	2c\	e-	p	2ee-\	e-	f
!	!	!	!	!	!	!	!	!	!LO:LB:g=original	!	!
=30	=30	=30	=30	=30	=30	=30	=30	=30	=30	=30	=30
2AAn/	-mi-	.	2G-X/	-mi-	.	2c\	-mi-	.	2ee-\	-mi-	.
2AA/	-sit	.	2G-/	-sit	.	2c\	-sit	.	2e-/	-sit	.
=31	=31	=31	=31	=31	=31	=31	=31	=31	=31	=31	=31
!	!	!	!	!	!	!	!	!LO:DY:a:rj	!	!	!LO:DY:a:rj
1BB-	spi-	.	1F	spi-	.	1B-	spi-	p	1e-	spi-	p
=32	=32	=32	=32	=32	=32	=32	=32	=32	=32	=32	=32
2BB-/	.	.	2A-\	.	.	2d\	.	.	2.f/	.	.
2BB-/	-ri-	.	2A-\	-ri-	.	2d\	-ri-	.	.	.	.
.	.	.	.	.	.	.	.	.	4e-/	-ri-	.
!	!	!	!	!	!	!LO:LB:g=original	!	!	!	!	!
=33	=33	=33	=33	=33	=33	=33	=33	=33	=33	=33	=33
0E-	-tum,	.	0Gn	-tum	.	0e-	-tum	.	0e-	-tum,	.
!LO:LB:g=original	!	!	!	!	!	!	!	!	!	!	!
=35||	=35||	=35||	=35||	=35||	=35||	=35||	=35||	=35||	=35||	=35||	=35||
4r	.	.	4r	.	.	4r	.	.	4r	.	.
!	!	!LO:DY:b:rj	!	!	!	!	!	!LO:DY:rj	!	!	!LO:DY:rj
4E-\	ex-	f	4B-\	ex-	.	4e-\	ex-	f	4g\	ex-	f
4E-\	-cla-	.	4B-\	-cla-	.	4d\	-cla-	.	4g\	-cla-	.
4E-\	-mans	.	4G/	-mans	.	4c#X\	-mans	.	4b-\	-mans	.
!	!	!	!LO:LB:g=original	!	!	!	!	!	!LO:LB:g=original	!	!
=36	=36	=36	=36	=36	=36	=36	=36	=36	=36	=36	=36
2D\	Je-	.	2G/	Je-	.	2d\	Je-	.	2b-\	Je-	.
2D\	-sus	.	2F#X/	-sus	.	2d\	-sus	.	2an\	-sus	.
=37	=37	=37	=37	=37	=37	=37	=37	=37	=37	=37	=37
!	!	!LO:DY:b:rj	!	!	!	!	!	!	!	!	!LO:DY:rj
2.G\	vo-	f	4G/	vo-	.	4d\	vo-	.	2.b-\	vo-	f
.	.	.	2d\	.	.	2g\	.	.	.	.	.
4G\	-ce	.	4d\	-ce	.	4g\	-ce	.	4b-\	-ce	.
=38	=38	=38	=38	=38	=38	=38	=38	=38	=38	=38	=38
!	!	!	!	!	!	!	!	!LO:DY:rj	!	!	!
4E-\	ma-	.	4e-\	ma-	.	4g\	ma-	f	4cc\	ma-	.
4E-\	-gna	.	4G/	-gna	.	4b-\	-gna	.	4cc\	-gna	.
2E-\	a-	.	4B-\	a-	.	2g\	a	.	2cc#X\	a-	.
.	.	.	4An\	.	.	.	.	.	.	.	.
!	!	!	!	!	!	!LO:LB:g=original	!	!	!	!	!
=39	=39	=39	=39	=39	=39	=39	=39	=39	=39	=39	=39
2D\	-it,	.	2An\	-it:	.	2f#X\	it,	.	2dd\	-it,	.
2r;	.	.	2r;	.	.	2r;	.	.	2r	.	.
!LO:LB:g=original	!	!	!	!	!	!	!	!	!	!	!
=40	=40	=40	=40||	=40||	=40	=40	=40	=40	=40	=40	=40
!	!	!LO:DY:rj	!	!	!	!	!	!LO:DY:rj:t=p.	!	!	!LO:DY:rj:t=p.
1GG	Pa-	p	1G	Pa-	.	1d	Pa-	p	1b-	Pa-	p
!	!	!	!	!	!	!	!	!	!LO:LB:g=original	!	!
=41	=41	=41	=41	=41	=41	=41	=41	=41	=41	=41	=41
1D	-ter	.	1F#X	-ter	.	1d	-ter	.	1an	-ter	.
!	!	!	!LO:LB:g=original	!	!	!	!	!	!	!	!
=42	=42	=42	=42	=42	=42	=42	=42	=42	=42	=42	=42
4r	.	.	4r	.	.	4r	.	.	4r	.	.
!	!	!LO:DY:b:rj	!	!	!	!	!	!LO:DY:rj	!	!	!LO:DY:rj
4C/	in	f	4c\	in	.	4g\	in	p	4ee-\	in	f
4C/	ma-	.	4c\	ma-	.	4g\	ma-	.	4ee-\	ma-	.
4c\	-nus	.	4c\	-nus	.	4g\	-nus	.	4ee-\	-nus	.
=43	=43	=43	=43	=43	=43	=43	=43	=43	=43	=43	=43
2F#X\	tu-	.	2c\	tu-	.	2an\	tu-	.	2ee-\	tu-	.
4F#\	-as	.	4d\	-as	.	4a\	-as	.	4dd\	-as	.
4F#\	com-	.	4e-\	com-	.	4a\	com-	.	4cc\	com-	.
=44	=44	=44	=44	=44	=44	=44	=44	=44	=44	=44	=44
2G\	-men-	.	2e-\	-men-	.	2g\	-men-	.	2cc\	-men-	.
2G\	-do	.	2d\	-do	.	2g\	-do	.	2b-\	-do	.
!LO:LB:g=original	!	!	!	!	!	!LO:LB:g=original	!	!	!	!	!
=45	=45	=45	=45	=45	=45	=45	=45	=45	=45	=45	=45
!	!	!LO:DY:rj	!	!	!	!	!	!	!	!	!LO:DY:rj:t=p.
2C/	spi-	p	2c\	spi-	.	2e-\	spi-	.	2a-\	Spi-	p
4C/	-ri-	.	4c\	-ri-	.	4e-\	-ri-	.	4a-\	-ri-	.
4C/	-tum	.	4c\	-tum	.	4e-\	-tum	.	4g\	-tum	.
!	!	!	!	!	!	!	!	!	!LO:LB:g=original	!	!
=46	=46	=46	=46	=46	=46	=46	=46	=46	=46	=46	=46
1D	me-	.	1An	me-	.	1d	me-	.	2g/	me-	.
.	.	.	.	.	.	.	.	.	2f#X/	.	.
!	!	!	!LO:LB:g=original	!	!	!	!	!	!	!	!
=47	=47	=47	=47	=47	=47	=47	=47	=47	=47	=47	=47
1GG;	-um	.	1G;	-um,	.	1d;	-um,	.	1g;	-um,	.
=48||	=48||	=48||	=48||	=48||	=48||	=48||	=48||	=48||	=48||	=48||	=48||
!	!	!LO:DY:b:rj	!	!	!	!	!	!LO:DY:rj	!	!	!LO:DY:rj
1G	et	f	1B-	et	.	1e-	et	p	1ee-	et	p
=49	=49	=49	=49	=49	=49	=49	=49	=49	=49	=49	=49
2F\	in-	.	2Bn\	in-	.	2a-X\	in-	.	2dd\	in-	.
2E-\	-cli-	.	2c\	-cli-	.	2g\	-cli-	.	2cc\	-cli-	.
=50	=50	=50	=50	=50	=50	=50	=50	=50	=50	=50	=50
2D\	-na-	.	2F/	-na-	.	2f\	-na-	.	2b-\	-na-	.
2C\	-to	.	2F/	-to	.	2e-\	-to	.	2an\	-to	.
!LO:LB:g=original	!	!	!	!	!	!	!	!	!	!	!
=51	=51	=51	=51	=51	=51	=51	=51	=51	=51	=51	=51
2.BB-/	ca-	.	2.F/	ca-	.	2.d\	ca-	.	2.a-X\	ca-	.
4BB-/	-pi-	.	4F/	-pi-	.	4d\	-pi-	.	4a-\	-pi-	.
=52	=52	=52	=52	=52	=52	=52	=52	=52	=52	=52	=52
2.BB-/	-te,	.	1F	-te	.	1d	-te	.	1a-	-te,	.
4r	.	.	.	.	.	.	.	.	.	.	.
!	!	!	!	!	!	!LO:LB:g=original	!	!	!LO:LB:g=original	!	!
=53	=53	=53	=53	=53	=53	=53	=53	=53	=53	=53	=53
2r	.	.	2r	.	.	2r	.	.	2r	.	.
!	!	!LO:DY:rj	!	!	!	!	!	!LO:DY:rj	!	!	!LO:DY:rj
2AAn/	e-	f	2G-X/	e-	.	2c\	e-	p	2ee-\	e-	f
!	!	!	!LO:LB:g=original	!	!	!	!	!	!	!	!
=54	=54	=54	=54	=54	=54	=54	=54	=54	=54	=54	=54
2AAn/	-mi-	.	2G-X/	-mi-	.	2c\	-mi-	.	2ee-\	-mi-	.
2AA/	-sit	.	2G-/	-sit	.	2c\	-sit	.	2e-/	-sit	.
=55	=55	=55	=55	=55	=55	=55	=55	=55	=55	=55	=55
!LO:TX:a:t=1:mod=	!	!	!LO:TX:a:t=1:mod=	!	!	!LO:TX:a:t=1:mod=	!	!	!LO:TX:a:t=1:mod=	!	!
1r	.	.	1r	.	.	1r	.	.	1r	.	.
!LO:LB:g=original	!	!	!	!	!	!	!	!	!	!	!
=56	=56	=56	=56	=56	=56	=56	=56	=56	=56	=56	=56
!	!	!LO:DY:rj	!	!	!	!	!	!LO:DY:a:rj	!	!	!LO:DY:a:rj:t=p.
1BB-	spi-	p	1F	spi-	.	1B-	spi-	p	1e-	Spi-	p
=57	=57	=57	=57	=57	=57	=57	=57	=57	=57	=57	=57
2BB-/	.	.	2A-\	.	.	2d\	.	.	2.f/	.	.
2BB-/	-ri-	.	2A-\	-ri-	.	2d\	-ri-	.	.	.	.
.	.	.	.	.	.	.	.	.	4e-/	-ri-	.
=58	=58	=58	=58	=58	=58	=58	=58	=58	=58	=58	=58
0E-	-tum	.	0Gn	-tum.	.	0e-	-tum.	.	0e-	-tum.	.
!	!	!	!	!	!	!LO:TX:b:rj:t=Seq Respon=\nsorium 6no.:mod=	!	!	!	!	!
==	==	==	==	==	==	==	==	==	==	==	==
*-	*-	*-	*-	*-	*-	*-	*-	*-	*-	*-	*-
!!!system-decoration: [(s1,s2,s3,s4)]
!!!RDF**kern: > = above
!!!RDF**kern: < = below
!!!RDF**kern: i = editorial accidental
!!!ENC: Anastazja Marusiak
!!!EED: Katarzyna Serwa
!!!END: 2023-11-16
!!!EEV: 2024-06-04
